build/svg/cmd/sc_pastespecial.svg

<?xml version="1.0" encoding="UTF-8" standalone="no"?>
<svg
   xmlns:dc="http://purl.org/dc/elements/1.1/"
   xmlns:cc="http://creativecommons.org/ns#"
   xmlns:rdf="http://www.w3.org/1999/02/22-rdf-syntax-ns#"
   xmlns:svg="http://www.w3.org/2000/svg"
   xmlns="http://www.w3.org/2000/svg"
   xmlns:sodipodi="http://sodipodi.sourceforge.net/DTD/sodipodi-0.dtd"
   xmlns:inkscape="http://www.inkscape.org/namespaces/inkscape"
   viewBox="0 0 16 16"
   version="1.1"
   id="svg4"
   sodipodi:docname="sc_pastespecial.svg"
   inkscape:version="0.92.4 (5da689c313, 2019-01-14)"
   inkscape:export-filename="/home/jupiter007/Libreoffice yaru theme fullcolor/build/cmd/sc_pastespecial.png"
   inkscape:export-xdpi="95"
   inkscape:export-ydpi="95">
  <metadata
     id="metadata10">
    <rdf:RDF>
      <cc:Work
         rdf:about="">
        <dc:format>image/svg+xml</dc:format>
        <dc:type
           rdf:resource="http://purl.org/dc/dcmitype/StillImage" />
      </cc:Work>
    </rdf:RDF>
  </metadata>
  <defs
     id="defs8" />
  <sodipodi:namedview
     pagecolor="#ffffff"
     bordercolor="#666666"
     borderopacity="1"
     objecttolerance="10"
     gridtolerance="10"
     guidetolerance="10"
     inkscape:pageopacity="0"
     inkscape:pageshadow="2"
     inkscape:window-width="1920"
     inkscape:window-height="1011"
     id="namedview6"
     showgrid="false"
     inkscape:zoom="41.7193"
     inkscape:cx="8.0601163"
     inkscape:cy="8.7432118"
     inkscape:window-x="1920"
     inkscape:window-y="32"
     inkscape:window-maximized="1"
     inkscape:current-layer="svg4" />
  <path
     inkscape:connector-curvature="0"
     style="opacity:0.6;vector-effect:none;fill:#000000;fill-opacity:1;stroke:none;stroke-width:2;stroke-linecap:round;stroke-linejoin:round;stroke-miterlimit:4;stroke-dasharray:none;stroke-dashoffset:0;stroke-opacity:1"
     d="m 7,1.9999999 c -0.554,0 -1,0.446 -1,1 H 5 c -1.108,0 -2,0.892 -2,2 V 12 c 0,1.108 0.892,2 2,2 h 2 4 c 1.106228,0 2,-0.889291 2,-2 v -5.0000002 -2 C 13,3.8919999 12.108,2.9999999 11,2.9999999 H 10 C 10,2.4459998 9.5540002,1.9999998 9.0000002,1.9999998 Z"
     id="rect9566"
     sodipodi:nodetypes="scssssccccsscss" />
  <rect
     style="opacity:1;vector-effect:none;fill:#cccccc;fill-opacity:1;stroke:none;stroke-width:2;stroke-linecap:round;stroke-linejoin:round;stroke-miterlimit:4;stroke-dasharray:none;stroke-dashoffset:0;stroke-opacity:1"
     id="rect873-1"
     width="8"
     height="9"
     x="4"
     y="3.9999998"
     ry="1"
     rx="1" />
  <rect
     style="opacity:1;vector-effect:none;fill:#cccccc;fill-opacity:1;stroke:none;stroke-width:2;stroke-linecap:round;stroke-linejoin:round;stroke-miterlimit:4;stroke-dasharray:none;stroke-dashoffset:0;stroke-opacity:1"
     id="rect9574"
     width="2"
     height="2"
     x="7"
     y="3" />
  <rect
     style="opacity:1;vector-effect:none;fill:#ffffff;fill-opacity:1;stroke:none;stroke-width:2;stroke-linecap:round;stroke-linejoin:round;stroke-miterlimit:4;stroke-dasharray:none;stroke-dashoffset:0;stroke-opacity:1"
     id="rect9578"
     width="2"
     height="1"
     x="7"
     y="3" />
  <path
     d="M 8.5,5 C 7.11875,5 6,6.1384302 6,7.4003906 V 8 H 7 V 7.4003906 C 7,6.7403907 7.5285938,6 8.5996094,6 9.6737024,6 10,6.5496374 10,7 10,8.2116965 8,8.7369776 8,10 H 9 C 9,9.5046431 11,8.5295487 11,7 11,5.6740001 10,5 8.5,5 Z M 8,11 v 1 h 1 v -1 z"
     id="path2"
     inkscape:connector-curvature="0"
     style="fill:#232629"
     sodipodi:nodetypes="ssccsssccssccccc" />
</svg>

<svg xmlns="http://www.w3.org/2000/svg" viewBox="0 0 16 16"><path d="M7 2c-.554 0-1 .446-1 1H5c-1.108 0-2 .892-2 2v7c0 1.108.892 2 2 2h6c1.106 0 2-.89 2-2V5c0-1.108-.892-2-2-2h-1c0-.554-.446-1-1-1z" opacity=".6"/><rect width="8" height="9" x="4" y="4" ry="1" rx="1" fill="#ccc"/><path fill="#ccc" d="M7 3h2v2H7z"/><path fill="#fff" d="M7 3h2v1H7z"/><path d="M8.5 5C7.119 5 6 6.138 6 7.4V8h1v-.6C7 6.74 7.529 6 8.6 6c1.074 0 1.4.55 1.4 1 0 1.212-2 1.737-2 3h1c0-.495 2-1.47 2-3 0-1.326-1-2-2.5-2zM8 11v1h1v-1z" fill="#232629"/></svg>
